polaris-icons/icons/newicons/MetaobjectMinor.svg

<svg width="20" height="20" viewBox="0 0 20 20" fill="none" xmlns="http://www.w3.org/2000/svg">
<path d="M2.5 6.75C2.5 5.23122 3.73122 4 5.25 4H5.5C5.91421 4 6.25 4.33579 6.25 4.75C6.25 5.16421 5.91421 5.5 5.5 5.5H5.25C4.55964 5.5 4 6.05964 4 6.75V9C4 9.19891 3.92098 9.38968 3.78033 9.53033L3.31066 10L3.78033 10.4697C3.92098 10.6103 4 10.8011 4 11V13.25C4 13.9404 4.55964 14.5 5.25 14.5H5.5C5.91421 14.5 6.25 14.8358 6.25 15.25C6.25 15.6642 5.91421 16 5.5 16H5.25C3.73122 16 2.5 14.7688 2.5 13.25V11.3107L1.71967 10.5303C1.42678 10.2374 1.42678 9.76256 1.71967 9.46967L2.5 8.68934V6.75Z" fill="black"/>
<path d="M17.5 13.25C17.5 14.7688 16.2688 16 14.75 16H14.5C14.0858 16 13.75 15.6642 13.75 15.25C13.75 14.8358 14.0858 14.5 14.5 14.5H14.75C15.4404 14.5 16 13.9404 16 13.25V11C16 10.8011 16.079 10.6103 16.2197 10.4697L16.6893 10L16.2197 9.53033C16.079 9.38968 16 9.19891 16 9V6.75C16 6.05964 15.4404 5.5 14.75 5.5H14.5C14.0858 5.5 13.75 5.16421 13.75 4.75C13.75 4.33579 14.0858 4 14.5 4H14.75C16.2688 4 17.5 5.23122 17.5 6.75V8.68934L18.2803 9.46967C18.5732 9.76256 18.5732 10.2374 18.2803 10.5303L17.5 11.3107V13.25Z" fill="black"/>
<path fill-rule="evenodd" clip-rule="evenodd" d="M10.8937 6.15847C10.3428 5.83129 9.6572 5.83129 9.10635 6.15847L7.35635 7.19786C6.82543 7.51319 6.5 8.08498 6.5 8.70248V11.2975C6.5 11.915 6.82543 12.4868 7.35635 12.8021L9.10635 13.8415C9.6572 14.1687 10.3428 14.1687 10.8937 13.8415L12.6437 12.8021C13.1746 12.4868 13.5 11.915 13.5 11.2975V8.70248C13.5 8.08498 13.1746 7.51319 12.6437 7.19786L10.8937 6.15847ZM9.87234 7.44814C9.95103 7.4014 10.049 7.4014 10.1277 7.44814L11.8777 8.48753C11.9535 8.53258 12 8.61427 12 8.70248V11.2975C12 11.3857 11.9535 11.4674 11.8777 11.5125L10.1277 12.5519C10.049 12.5986 9.95103 12.5986 9.87234 12.5519L8.12234 11.5125C8.04649 11.4674 8 11.3857 8 11.2975V8.70248C8 8.61427 8.04649 8.53258 8.12234 8.48753L9.87234 7.44814Z" fill="black"/>
</svg>

<svg viewBox="0 0 20 20" fill="none" xmlns="http://www.w3.org/2000/svg"><path d="M2.5 6.75a2.75 2.75 0 0 1 2.75-2.75h.25a.75.75 0 0 1 0 1.5h-.25c-.69 0-1.25.56-1.25 1.25v2.25a.75.75 0 0 1-.22.53l-.47.47.47.47c.141.14.22.331.22.53v2.25c0 .69.56 1.25 1.25 1.25h.25a.75.75 0 0 1 0 1.5h-.25a2.75 2.75 0 0 1-2.75-2.75v-1.94l-.78-.78a.75.75 0 0 1 0-1.06l.78-.78v-1.94Z" fill="#5C5F62"/><path d="M17.5 13.25a2.75 2.75 0 0 1-2.75 2.75h-.25a.75.75 0 0 1 0-1.5h.25c.69 0 1.25-.56 1.25-1.25v-2.25a.75.75 0 0 1 .22-.53l.47-.47-.47-.47a.75.75 0 0 1-.22-.53v-2.25c0-.69-.56-1.25-1.25-1.25h-.25a.75.75 0 0 1 0-1.5h.25a2.75 2.75 0 0 1 2.75 2.75v1.94l.78.78a.75.75 0 0 1 0 1.06l-.78.78v1.94Z" fill="#5C5F62"/><path fill-rule="evenodd" clip-rule="evenodd" d="M10.894 6.158a1.75 1.75 0 0 0-1.788 0l-1.75 1.04a1.75 1.75 0 0 0-.856 1.504v2.595c0 .618.325 1.19.856 1.505l1.75 1.04a1.75 1.75 0 0 0 1.788 0l1.75-1.04a1.75 1.75 0 0 0 .856-1.505v-2.595a1.75 1.75 0 0 0-.856-1.504l-1.75-1.04Zm-1.022 1.29a.25.25 0 0 1 .256 0l1.75 1.04a.25.25 0 0 1 .122.214v2.595a.25.25 0 0 1-.122.215l-1.75 1.04a.25.25 0 0 1-.256 0l-1.75-1.04a.25.25 0 0 1-.122-.215v-2.595a.25.25 0 0 1 .122-.214l1.75-1.04Z" fill="#5C5F62"/></svg>
